X: 1
T: Trip To Dublin, The
M: 4/4
L: 1/8
R: hornpipe
K: Amin
B,2 | EFGA BcBG | ABAF D2B,2 | EFGA BcBG | A3B A2GF |
EFGA BcBG | ABAF DFGA | BGAF GEFD | E2EF E2 :|
|: GA | BG~G2 DGBG | AF~F2 DFAF | GEED EFED | B,2B,A, B,2GA | 
BG~G2 DGBG | AF~F2 DFGA | BGAF GEFD | E2EF E2 :|
